static/img/kroki/c5fe3ba5fa5ce7dbe6c3cb6ad0700169.svg

<?xml version="1.0" encoding="us-ascii" standalone="no"?><svg xmlns="http://www.w3.org/2000/svg" xmlns:xlink="http://www.w3.org/1999/xlink" contentStyleType="text/css" height="899px" preserveAspectRatio="none" style="width:415px;height:899px;" version="1.1" viewBox="0 0 415 899" width="415px" zoomAndPan="magnify"><defs/><g><!--class azure_network_dns_zone--><g id="elem_azure_network_dns_zone"><rect codeLine="23" fill="#3D176E" height="231.8672" id="azure_network_dns_zone" rx="2.5" ry="2.5" style="stroke:#000D19;stroke-width:0.5;" width="384" x="7" y="660.14"/><ellipse cx="84.25" cy="680.0345" fill="#ADD1B2" rx="11" ry="11" style="stroke:#181818;stroke-width:1.0;"/><path d="M87.2188,685.6752 Q86.6406,685.972 86,686.1127 Q85.3594,686.2689 84.6563,686.2689 Q82.1563,686.2689 80.8281,684.6283 Q79.5156,682.972 79.5156,679.847 Q79.5156,676.722 80.8281,675.0658 Q82.1563,673.4095 84.6563,673.4095 Q85.3594,673.4095 86,673.5658 Q86.6563,673.722 87.2188,674.0189 L87.2188,676.7377 Q86.5938,676.1595 86,675.8939 Q85.4063,675.6127 84.7813,675.6127 Q83.4375,675.6127 82.75,676.6908 Q82.0625,677.7533 82.0625,679.847 Q82.0625,681.9408 82.75,683.0189 Q83.4375,684.0814 84.7813,684.0814 Q85.4063,684.0814 86,683.8158 Q86.5938,683.5345 87.2188,682.9564 L87.2188,685.6752 Z " fill="#000000"/><text fill="#D9B8FF" font-family="Helvetica" font-size="17" lengthAdjust="spacing" textLength="211" x="109.75" y="685.9198">azure_network_dns_zone</text><line style="stroke:#000D19;stroke-width:0.5;" x1="8" x2="390" y1="699.9291" y2="699.9291"/><text fill="#D9B8FF" font-family="sans-serif" font-size="14" font-weight="bold" lengthAdjust="spacing" textLength="224" x="18" y="721.9242">max_number_of_record_sets</text><text fill="#D9B8FF" font-family="sans-serif" font-size="14" lengthAdjust="spacing" textLength="44" x="242" y="721.9242">: int64</text><text fill="#D9B8FF" font-family="sans-serif" font-size="14" font-weight="bold" lengthAdjust="spacing" textLength="318" x="18" y="748.2211">max_number_of_records_per_record_set</text><text fill="#D9B8FF" font-family="sans-serif" font-size="14" lengthAdjust="spacing" textLength="44" x="336" y="748.2211">: int64</text><text fill="#D9B8FF" font-family="sans-serif" font-size="14" font-weight="bold" lengthAdjust="spacing" textLength="111" x="18" y="774.5179">name_servers</text><text fill="#D9B8FF" font-family="sans-serif" font-size="14" lengthAdjust="spacing" textLength="58" x="129" y="774.5179">: string[]</text><text fill="#D9B8FF" font-family="sans-serif" font-size="14" font-weight="bold" lengthAdjust="spacing" textLength="185" x="18" y="800.8148">number_of_record_sets</text><text fill="#D9B8FF" font-family="sans-serif" font-size="14" lengthAdjust="spacing" textLength="44" x="203" y="800.8148">: int64</text><text fill="#D9B8FF" font-family="sans-serif" font-size="14" font-weight="bold" lengthAdjust="spacing" textLength="230" x="18" y="827.1117">registration_virtual_networks</text><text fill="#D9B8FF" font-family="sans-serif" font-size="14" lengthAdjust="spacing" textLength="58" x="248" y="827.1117">: string[]</text><text fill="#D9B8FF" font-family="sans-serif" font-size="14" font-weight="bold" lengthAdjust="spacing" textLength="218" x="18" y="853.4086">resolution_virtual_networks</text><text fill="#D9B8FF" font-family="sans-serif" font-size="14" lengthAdjust="spacing" textLength="58" x="236" y="853.4086">: string[]</text><text fill="#D9B8FF" font-family="sans-serif" font-size="14" font-weight="bold" lengthAdjust="spacing" textLength="81" x="18" y="879.7054">zone_type</text><text fill="#D9B8FF" font-family="sans-serif" font-size="14" lengthAdjust="spacing" textLength="48" x="99" y="879.7054">: string</text></g><!--class dns_zone--><g id="elem_dns_zone"><rect codeLine="32" fill="#3D176E" height="39.7891" id="dns_zone" rx="2.5" ry="2.5" style="stroke:#000D19;stroke-width:0.5;" width="119" x="39.5" y="469.06"/><ellipse cx="54.5" cy="488.9545" fill="#ADD1B2" rx="11" ry="11" style="stroke:#181818;stroke-width:1.0;"/><path d="M57.4688,494.5952 Q56.8906,494.892 56.25,495.0327 Q55.6094,495.1889 54.9063,495.1889 Q52.4063,495.1889 51.0781,493.5483 Q49.7656,491.892 49.7656,488.767 Q49.7656,485.642 51.0781,483.9858 Q52.4063,482.3295 54.9063,482.3295 Q55.6094,482.3295 56.25,482.4858 Q56.9063,482.642 57.4688,482.9389 L57.4688,485.6577 Q56.8438,485.0795 56.25,484.8139 Q55.6563,484.5327 55.0313,484.5327 Q53.6875,484.5327 53,485.6108 Q52.3125,486.6733 52.3125,488.767 Q52.3125,490.8608 53,491.9389 Q53.6875,493.0014 55.0313,493.0014 Q55.6563,493.0014 56.25,492.7358 Q56.8438,492.4545 57.4688,491.8764 L57.4688,494.5952 Z " fill="#000000"/><text fill="#D9B8FF" font-family="Helvetica" font-size="17" lengthAdjust="spacing" textLength="77" x="73.5" y="494.8398">dns_zone</text></g><!--class microsoft_resource--><g id="elem_microsoft_resource"><rect codeLine="35" fill="#3D176E" height="100.3828" id="microsoft_resource" rx="2.5" ry="2.5" style="stroke:#000D19;stroke-width:0.5;" width="214" x="194" y="438.76"/><ellipse cx="215.3" cy="458.6545" fill="#ADD1B2" rx="11" ry="11" style="stroke:#181818;stroke-width:1.0;"/><path d="M218.2688,464.2952 Q217.6906,464.592 217.05,464.7327 Q216.4094,464.8889 215.7063,464.8889 Q213.2063,464.8889 211.8781,463.2483 Q210.5656,461.592 210.5656,458.467 Q210.5656,455.342 211.8781,453.6858 Q213.2063,452.0295 215.7063,452.0295 Q216.4094,452.0295 217.05,452.1858 Q217.7063,452.342 218.2688,452.6389 L218.2688,455.3577 Q217.6438,454.7795 217.05,454.5139 Q216.4563,454.2327 215.8313,454.2327 Q214.4875,454.2327 213.8,455.3108 Q213.1125,456.3733 213.1125,458.467 Q213.1125,460.5608 213.8,461.6389 Q214.4875,462.7014 215.8313,462.7014 Q216.4563,462.7014 217.05,462.4358 Q217.6438,462.1545 218.2688,461.5764 L218.2688,464.2952 Z " fill="#000000"/><text fill="#D9B8FF" font-family="Helvetica" font-size="17" lengthAdjust="spacing" textLength="158" x="235.7" y="464.5398">microsoft_resource</text><line style="stroke:#000D19;stroke-width:0.5;" x1="195" x2="407" y1="478.5491" y2="478.5491"/><text fill="#D9B8FF" font-family="sans-serif" font-size="14" font-weight="bold" lengthAdjust="spacing" textLength="35" x="205" y="500.5442">etag</text><text fill="#D9B8FF" font-family="sans-serif" font-size="14" lengthAdjust="spacing" textLength="48" x="240" y="500.5442">: string</text><text fill="#D9B8FF" font-family="sans-serif" font-size="14" font-weight="bold" lengthAdjust="spacing" textLength="144" x="205" y="526.8411">provisioning_state</text><text fill="#D9B8FF" font-family="sans-serif" font-size="14" lengthAdjust="spacing" textLength="48" x="349" y="526.8411">: string</text></g><!--class resource--><g id="elem_resource"><rect codeLine="39" fill="#3D176E" height="310.7578" id="resource" rx="2.5" ry="2.5" style="stroke:#000D19;stroke-width:0.5;" width="227" x="85.5" y="7"/><ellipse cx="154.25" cy="26.8945" fill="#ADD1B2" rx="11" ry="11" style="stroke:#181818;stroke-width:1.0;"/><path d="M157.2188,32.5352 Q156.6406,32.832 156,32.9727 Q155.3594,33.1289 154.6563,33.1289 Q152.1563,33.1289 150.8281,31.4883 Q149.5156,29.832 149.5156,26.707 Q149.5156,23.582 150.8281,21.9258 Q152.1563,20.2695 154.6563,20.2695 Q155.3594,20.2695 156,20.4258 Q156.6563,20.582 157.2188,20.8789 L157.2188,23.5977 Q156.5938,23.0195 156,22.7539 Q155.4063,22.4727 154.7813,22.4727 Q153.4375,22.4727 152.75,23.5508 Q152.0625,24.6133 152.0625,26.707 Q152.0625,28.8008 152.75,29.8789 Q153.4375,30.9414 154.7813,30.9414 Q155.4063,30.9414 156,30.6758 Q156.5938,30.3945 157.2188,29.8164 L157.2188,32.5352 Z " fill="#000000"/><text fill="#D9B8FF" font-family="Helvetica" font-size="17" lengthAdjust="spacing" textLength="71" x="179.75" y="32.7798">resource</text><line style="stroke:#000D19;stroke-width:0.5;" x1="86.5" x2="311.5" y1="46.7891" y2="46.7891"/><text fill="#D9B8FF" font-family="sans-serif" font-size="14" font-weight="bold" lengthAdjust="spacing" textLength="29" x="96.5" y="68.7842">age</text><text fill="#D9B8FF" font-family="sans-serif" font-size="14" lengthAdjust="spacing" textLength="66" x="125.5" y="68.7842">: duration</text><text fill="#D9B8FF" font-family="sans-serif" font-size="14" font-weight="bold" lengthAdjust="spacing" textLength="43" x="96.5" y="95.0811">atime</text><text fill="#D9B8FF" font-family="sans-serif" font-size="14" lengthAdjust="spacing" textLength="70" x="139.5" y="95.0811">: datetime</text><text fill="#D9B8FF" font-family="sans-serif" font-size="14" font-weight="bold" lengthAdjust="spacing" textLength="43" x="96.5" y="121.3779">ctime</text><text fill="#D9B8FF" font-family="sans-serif" font-size="14" lengthAdjust="spacing" textLength="70" x="139.5" y="121.3779">: datetime</text><text fill="#D9B8FF" font-family="sans-serif" font-size="14" font-weight="bold" lengthAdjust="spacing" textLength="14" x="96.5" y="147.6748">id</text><text fill="#D9B8FF" font-family="sans-serif" font-size="14" lengthAdjust="spacing" textLength="48" x="110.5" y="147.6748">: string</text><text fill="#D9B8FF" font-family="sans-serif" font-size="14" font-weight="bold" lengthAdjust="spacing" textLength="33" x="96.5" y="173.9717">kind</text><text fill="#D9B8FF" font-family="sans-serif" font-size="14" lengthAdjust="spacing" textLength="48" x="129.5" y="173.9717">: string</text><text fill="#D9B8FF" font-family="sans-serif" font-size="14" font-weight="bold" lengthAdjust="spacing" textLength="90" x="96.5" y="200.2686">last_access</text><text fill="#D9B8FF" font-family="sans-serif" font-size="14" lengthAdjust="spacing" textLength="66" x="186.5" y="200.2686">: duration</text><text fill="#D9B8FF" font-family="sans-serif" font-size="14" font-weight="bold" lengthAdjust="spacing" textLength="90" x="96.5" y="226.5654">last_update</text><text fill="#D9B8FF" font-family="sans-serif" font-size="14" lengthAdjust="spacing" textLength="66" x="186.5" y="226.5654">: duration</text><text fill="#D9B8FF" font-family="sans-serif" font-size="14" font-weight="bold" lengthAdjust="spacing" textLength="48" x="96.5" y="252.8623">mtime</text><text fill="#D9B8FF" font-family="sans-serif" font-size="14" lengthAdjust="spacing" textLength="70" x="144.5" y="252.8623">: datetime</text><text fill="#D9B8FF" font-family="sans-serif" font-size="14" font-weight="bold" lengthAdjust="spacing" textLength="43" x="96.5" y="279.1592">name</text><text fill="#D9B8FF" font-family="sans-serif" font-size="14" lengthAdjust="spacing" textLength="48" x="139.5" y="279.1592">: string</text><text fill="#D9B8FF" font-family="sans-serif" font-size="14" font-weight="bold" lengthAdjust="spacing" textLength="34" x="96.5" y="305.4561">tags</text><text fill="#D9B8FF" font-family="sans-serif" font-size="14" lengthAdjust="spacing" textLength="171" x="130.5" y="305.4561">: dictionary[string, string]</text></g><!--reverse link dns_zone to azure_network_dns_zone--><g id="link_dns_zone_azure_network_dns_zone"><path codeLine="51" d="M111.6742,526.0867 C122.4842,556.9267 138.62,602.93 158.59,659.86 " fill="none" id="dns_zone-backto-azure_network_dns_zone" style="stroke:#FFAF37;stroke-width:2.0;"/><polygon fill="none" points="105.72,509.1,106.0119,528.0714,117.3364,524.102,105.72,509.1" style="stroke:#FFAF37;stroke-width:2.0;"/></g><!--reverse link microsoft_resource to azure_network_dns_zone--><g id="link_microsoft_resource_azure_network_dns_zone"><path codeLine="52" d="M277.1669,556.5681 C265.2969,589.7481 255.23,617.89 240.27,659.72 " fill="none" id="microsoft_resource-backto-azure_network_dns_zone" style="stroke:#FFAF37;stroke-width:2.0;"/><polygon fill="none" points="283.23,539.62,271.5175,554.5471,282.8163,558.5892,283.23,539.62" style="stroke:#FFAF37;stroke-width:2.0;"/></g><!--reverse link resource to dns_zone--><g id="link_resource_dns_zone"><path codeLine="53" d="M146.0406,335.2622 C127.6306,395.0222 114.1,438.96 104.85,468.96 " fill="none" id="resource-backto-dns_zone" style="stroke:#FFAF37;stroke-width:2.0;"/><polygon fill="none" points="151.34,318.06,140.3065,333.4957,151.7747,337.0287,151.34,318.06" style="stroke:#FFAF37;stroke-width:2.0;"/></g><!--reverse link resource to microsoft_resource--><g id="link_resource_microsoft_resource"><path codeLine="54" d="M253.0059,335.2322 C266.7059,378.8322 275.24,405.98 285.44,438.42 " fill="none" id="resource-backto-microsoft_resource" style="stroke:#FFAF37;stroke-width:2.0;"/><polygon fill="none" points="247.61,318.06,247.2818,337.0308,258.7299,333.4336,247.61,318.06" style="stroke:#FFAF37;stroke-width:2.0;"/></g><!--SRC=[ZPHFRnen4CNl-oaivROg4YHj254l2LBLNgAgwIsAB6FFBXQxzcey2uMstxqsIuZt3z0R- -RdUJDllIor0WPbHLjMGha0T8bRQLC952LxGBIRkIqiigii4zdDj5lyOWrT19v42Umh56iWBKMN-BdKScN0ENOTbHw5NELeQwEQzeJ2E5y2Gn4rBuHp3qIe5pL1D8oQBUwoh4jscrxTgCdq5dgOHGLuGCRZiPhCkiX5gxDx7ubdlGCsYKDxiWIzCNiMU-hib868Xkmj-bO_EUDtePGsEViKQJ-QcT00jlJdfL1s4-XC52wsSGG8bhOLp7jRmUnEPTD1-DifE94XEYPsDG8tG1kBAwwCupjhWFrEqhGKlxYfmqtcDkC8qiV47P1Bqtkc3Tr-F04vNld7zmCnRtnANiEr_pw2xloDC_dBQoXTyaB8jUS5QMluMYFLedWRlTiCmTcY_XyoxCj3LEzwylUGJfJ7KIkrHEjiHZnur2YRj8147dL8qmhjMZi_W7_aZWGD6RHQY7oFgBfPCIYaoqRpnyDlhya1JQkMjRy7RS5x4HTI-l-6ZiE-KbVgC5vKAGTymjjhDVPBDnsr3CS4Rb-QseS3y-fNFQRu-SzeD3fnvPA1NC_o7UgKtc-R_0C0]--></g></svg>

<svg xmlns="http://www.w3.org/2000/svg" width="415" height="899" viewBox="0 0 415 899"><rect width="384" height="231.867" x="7" y="660.14" fill="#3D176E" rx="2.5" ry="2.5" style="stroke:#000d19;stroke-width:.5"/><circle cx="84.25" cy="680.034" r="11" fill="#ADD1B2" style="stroke:#181818;stroke-width:1"/><path d="M87.219 685.675q-.578.297-1.219.438-.64.156-1.344.156-2.5 0-3.828-1.64-1.312-1.657-1.312-4.782t1.312-4.781q1.328-1.657 3.828-1.657.703 0 1.344.157.656.156 1.219.453v2.719q-.625-.579-1.219-.844-.594-.281-1.219-.281-1.344 0-2.031 1.078-.687 1.062-.687 3.156t.687 3.172q.688 1.062 2.031 1.062.625 0 1.219-.265.594-.282 1.219-.86z"/><text x="109.75" y="685.92" fill="#D9B8FF" font-family="Helvetica" font-size="17" textLength="211">azure_network_dns_zone</text><path d="M8 699.929h382" style="stroke:#000d19;stroke-width:.5"/><text x="18" y="721.924" fill="#D9B8FF" font-family="sans-serif" font-size="14" font-weight="bold" textLength="224">max_number_of_record_sets</text><text x="242" y="721.924" fill="#D9B8FF" font-family="sans-serif" font-size="14" textLength="44">: int64</text><text x="18" y="748.221" fill="#D9B8FF" font-family="sans-serif" font-size="14" font-weight="bold" textLength="318">max_number_of_records_per_record_set</text><text x="336" y="748.221" fill="#D9B8FF" font-family="sans-serif" font-size="14" textLength="44">: int64</text><text x="18" y="774.518" fill="#D9B8FF" font-family="sans-serif" font-size="14" font-weight="bold" textLength="111">name_servers</text><text x="129" y="774.518" fill="#D9B8FF" font-family="sans-serif" font-size="14" textLength="58">: string[]</text><text x="18" y="800.815" fill="#D9B8FF" font-family="sans-serif" font-size="14" font-weight="bold" textLength="185">number_of_record_sets</text><text x="203" y="800.815" fill="#D9B8FF" font-family="sans-serif" font-size="14" textLength="44">: int64</text><text x="18" y="827.112" fill="#D9B8FF" font-family="sans-serif" font-size="14" font-weight="bold" textLength="230">registration_virtual_networks</text><text x="248" y="827.112" fill="#D9B8FF" font-family="sans-serif" font-size="14" textLength="58">: string[]</text><text x="18" y="853.409" fill="#D9B8FF" font-family="sans-serif" font-size="14" font-weight="bold" textLength="218">resolution_virtual_networks</text><text x="236" y="853.409" fill="#D9B8FF" font-family="sans-serif" font-size="14" textLength="58">: string[]</text><text x="18" y="879.705" fill="#D9B8FF" font-family="sans-serif" font-size="14" font-weight="bold" textLength="81">zone_type</text><text x="99" y="879.705" fill="#D9B8FF" font-family="sans-serif" font-size="14" textLength="48">: string</text><rect width="119" height="39.789" x="39.5" y="469.06" fill="#3D176E" rx="2.5" ry="2.5" style="stroke:#000d19;stroke-width:.5"/><circle cx="54.5" cy="488.954" r="11" fill="#ADD1B2" style="stroke:#181818;stroke-width:1"/><path d="M57.469 494.595q-.578.297-1.219.438-.64.156-1.344.156-2.5 0-3.828-1.64-1.312-1.657-1.312-4.782t1.312-4.781q1.328-1.656 3.828-1.656.703 0 1.344.156.656.156 1.219.453v2.719q-.625-.579-1.219-.844-.594-.281-1.219-.281-1.343 0-2.031 1.078-.687 1.062-.687 3.156t.687 3.172Q53.688 493 55.031 493q.625 0 1.219-.265.594-.281 1.219-.86z"/><text x="73.5" y="494.84" fill="#D9B8FF" font-family="Helvetica" font-size="17" textLength="77">dns_zone</text><rect width="214" height="100.383" x="194" y="438.76" fill="#3D176E" rx="2.5" ry="2.5" style="stroke:#000d19;stroke-width:.5"/><circle cx="215.3" cy="458.654" r="11" fill="#ADD1B2" style="stroke:#181818;stroke-width:1"/><path d="M218.269 464.295q-.578.297-1.219.438-.64.156-1.344.156-2.5 0-3.828-1.64-1.312-1.657-1.312-4.782t1.312-4.781q1.328-1.656 3.828-1.656.703 0 1.344.156.656.156 1.219.453v2.719q-.625-.579-1.219-.844-.594-.281-1.219-.281-1.343 0-2.031 1.078-.687 1.062-.687 3.156t.687 3.172q.688 1.062 2.031 1.062.625 0 1.219-.265.594-.281 1.219-.86z"/><text x="235.7" y="464.54" fill="#D9B8FF" font-family="Helvetica" font-size="17" textLength="158">microsoft_resource</text><path d="M195 478.549h212" style="stroke:#000d19;stroke-width:.5"/><text x="205" y="500.544" fill="#D9B8FF" font-family="sans-serif" font-size="14" font-weight="bold" textLength="35">etag</text><text x="240" y="500.544" fill="#D9B8FF" font-family="sans-serif" font-size="14" textLength="48">: string</text><text x="205" y="526.841" fill="#D9B8FF" font-family="sans-serif" font-size="14" font-weight="bold" textLength="144">provisioning_state</text><text x="349" y="526.841" fill="#D9B8FF" font-family="sans-serif" font-size="14" textLength="48">: string</text><rect width="227" height="310.758" x="85.5" y="7" fill="#3D176E" rx="2.5" ry="2.5" style="stroke:#000d19;stroke-width:.5"/><circle cx="154.25" cy="26.895" r="11" fill="#ADD1B2" style="stroke:#181818;stroke-width:1"/><path d="M157.219 32.535q-.578.297-1.219.438-.64.156-1.344.156-2.5 0-3.828-1.64-1.312-1.657-1.312-4.782t1.312-4.781q1.328-1.656 3.828-1.656.703 0 1.344.156.656.156 1.219.453v2.719q-.625-.578-1.219-.844-.594-.281-1.219-.281-1.344 0-2.031 1.078-.687 1.062-.687 3.156t.687 3.172q.688 1.062 2.031 1.062.625 0 1.219-.265.594-.281 1.219-.86z"/><text x="179.75" y="32.78" fill="#D9B8FF" font-family="Helvetica" font-size="17" textLength="71">resource</text><path d="M86.5 46.789h225" style="stroke:#000d19;stroke-width:.5"/><text x="96.5" y="68.784" fill="#D9B8FF" font-family="sans-serif" font-size="14" font-weight="bold" textLength="29">age</text><text x="125.5" y="68.784" fill="#D9B8FF" font-family="sans-serif" font-size="14" textLength="66">: duration</text><text x="96.5" y="95.081" fill="#D9B8FF" font-family="sans-serif" font-size="14" font-weight="bold" textLength="43">atime</text><text x="139.5" y="95.081" fill="#D9B8FF" font-family="sans-serif" font-size="14" textLength="70">: datetime</text><text x="96.5" y="121.378" fill="#D9B8FF" font-family="sans-serif" font-size="14" font-weight="bold" textLength="43">ctime</text><text x="139.5" y="121.378" fill="#D9B8FF" font-family="sans-serif" font-size="14" textLength="70">: datetime</text><text x="96.5" y="147.675" fill="#D9B8FF" font-family="sans-serif" font-size="14" font-weight="bold" textLength="14">id</text><text x="110.5" y="147.675" fill="#D9B8FF" font-family="sans-serif" font-size="14" textLength="48">: string</text><text x="96.5" y="173.972" fill="#D9B8FF" font-family="sans-serif" font-size="14" font-weight="bold" textLength="33">kind</text><text x="129.5" y="173.972" fill="#D9B8FF" font-family="sans-serif" font-size="14" textLength="48">: string</text><text x="96.5" y="200.269" fill="#D9B8FF" font-family="sans-serif" font-size="14" font-weight="bold" textLength="90">last_access</text><text x="186.5" y="200.269" fill="#D9B8FF" font-family="sans-serif" font-size="14" textLength="66">: duration</text><text x="96.5" y="226.565" fill="#D9B8FF" font-family="sans-serif" font-size="14" font-weight="bold" textLength="90">last_update</text><text x="186.5" y="226.565" fill="#D9B8FF" font-family="sans-serif" font-size="14" textLength="66">: duration</text><text x="96.5" y="252.862" fill="#D9B8FF" font-family="sans-serif" font-size="14" font-weight="bold" textLength="48">mtime</text><text x="144.5" y="252.862" fill="#D9B8FF" font-family="sans-serif" font-size="14" textLength="70">: datetime</text><text x="96.5" y="279.159" fill="#D9B8FF" font-family="sans-serif" font-size="14" font-weight="bold" textLength="43">name</text><text x="139.5" y="279.159" fill="#D9B8FF" font-family="sans-serif" font-size="14" textLength="48">: string</text><text x="96.5" y="305.456" fill="#D9B8FF" font-family="sans-serif" font-size="14" font-weight="bold" textLength="34">tags</text><text x="130.5" y="305.456" fill="#D9B8FF" font-family="sans-serif" font-size="14" textLength="171">: dictionary[string, string]</text><path fill="none" d="M111.674 526.087c10.81 30.84 26.946 76.843 46.916 133.773M105.72 509.1l.292 18.971 11.324-3.969z" style="stroke:#ffaf37;stroke-width:2"/><g fill="none"><path d="M277.167 556.568c-11.87 33.18-21.937 61.322-36.897 103.152" style="stroke:#ffaf37;stroke-width:2"/><path d="m283.23 539.62-11.713 14.927 11.3 4.042z" style="stroke:#ffaf37;stroke-width:2"/></g><g fill="none"><path d="M146.04 335.262c-18.41 59.76-31.94 103.698-41.19 133.698" style="stroke:#ffaf37;stroke-width:2"/><path d="m151.34 318.06-11.034 15.436 11.469 3.533z" style="stroke:#ffaf37;stroke-width:2"/></g><path fill="none" d="M253.006 335.232c13.7 43.6 22.234 70.748 32.434 103.188m-37.83-120.36-.328 18.97 11.448-3.596z" style="stroke:#ffaf37;stroke-width:2"/></svg>
